communes/885.svg

<?xml version="1.0" encoding="UTF-8" standalone="no"?>
<svg
   xmlns:dc="http://purl.org/dc/elements/1.1/"
   xmlns:cc="http://web.resource.org/cc/"
   xmlns:rdf="http://www.w3.org/1999/02/22-rdf-syntax-ns#"
   xmlns:svg="http://www.w3.org/2000/svg"
   xmlns="http://www.w3.org/2000/svg"
   xmlns:xlink="http://www.w3.org/1999/xlink"
   xmlns:sodipodi="http://sodipodi.sourceforge.net/DTD/sodipodi-0.dtd"
   xmlns:inkscape="http://www.inkscape.org/namespaces/inkscape"
   height="763"
   width="603"
   version="1.0"
   id="svg20"
   sodipodi:version="0.32"
   inkscape:version="0.44.1"
   sodipodi:docname="Uttigen-coat of arms.svg"
   sodipodi:docbase="F:\Mis Documentos\Mis imágenes\Encyclopédie\Escudos de Suiza">
  <metadata
     id="metadata31">
    <rdf:RDF>
      <cc:Work
         rdf:about="">
        <dc:format>image/svg+xml</dc:format>
        <dc:type
           rdf:resource="http://purl.org/dc/dcmitype/StillImage" />
        <dc:date>07-AUG-2006</dc:date>
        <dc:creator>
          <cc:Agent>
            <dc:title>Jérôme BLUM (wagner51)</dc:title>
          </cc:Agent>
        </dc:creator>
        <cc:license
           rdf:resource="http://creativecommons.org/licenses/GPL/2.0/" />
        <dc:coverage />
        <dc:description>Gabarit pour le Projet:Blasons de WIkipédia</dc:description>
        <dc:subject>
          <rdf:Bag>
            <rdf:li>blason suisse modèle gabarit projet blasons</rdf:li>
          </rdf:Bag>
        </dc:subject>
        <dc:language>fr</dc:language>
        <dc:title>Gabrit d'un blason suisse</dc:title>
      </cc:Work>
      <cc:License
         rdf:about="http://creativecommons.org/licenses/GPL/2.0/">
        <cc:permits
           rdf:resource="http://web.resource.org/cc/Reproduction" />
        <cc:permits
           rdf:resource="http://web.resource.org/cc/Distribution" />
        <cc:requires
           rdf:resource="http://web.resource.org/cc/Notice" />
        <cc:permits
           rdf:resource="http://web.resource.org/cc/DerivativeWorks" />
        <cc:requires
           rdf:resource="http://web.resource.org/cc/ShareAlike" />
        <cc:requires
           rdf:resource="http://web.resource.org/cc/SourceCode" />
      </cc:License>
    </rdf:RDF>
  </metadata>
  <defs
     id="defs29">
    <linearGradient
       id="linearGradient2893">
      <stop
         style="stop-color:#ffffff;stop-opacity:0.3137255;"
         offset="0"
         id="stop2895" />
      <stop
         id="stop2897"
         offset="0.19"
         style="stop-color:#ffffff;stop-opacity:0.25098041;" />
      <stop
         style="stop-color:#6b6b6b;stop-opacity:0.1254902;"
         offset="0.60000002"
         id="stop2901" />
      <stop
         style="stop-color:#000000;stop-opacity:0.1254902;"
         offset="1"
         id="stop2899" />
    </linearGradient>
    <linearGradient
       id="linearGradient2955">
      <stop
         style="stop-color:white;stop-opacity:0;"
         offset="0"
         id="stop2965" />
      <stop
         style="stop-color:black;stop-opacity:0.64583331;"
         offset="1"
         id="stop2959" />
    </linearGradient>
    <radialGradient
       inkscape:collect="always"
       xlink:href="#linearGradient2893"
       id="radialGradient3236"
       gradientUnits="userSpaceOnUse"
       gradientTransform="matrix(1.215027,1.531577e-24,1.464684e-23,1.266667,-839.1924,-490.4894)"
       cx="858.04236"
       cy="579.93323"
       fx="858.04236"
       fy="579.93323"
       r="300" />
  </defs>
  <sodipodi:namedview
     inkscape:window-height="682"
     inkscape:window-width="1024"
     inkscape:pageshadow="2"
     inkscape:pageopacity="0.0"
     guidetolerance="10.0"
     gridtolerance="10.0"
     objecttolerance="10.0"
     borderopacity="1.0"
     bordercolor="#666666"
     pagecolor="#ffffff"
     id="base"
     inkscape:zoom="0.61775571"
     inkscape:cx="741.40134"
     inkscape:cy="362.27069"
     inkscape:window-x="-4"
     inkscape:window-y="-4"
     inkscape:current-layer="layer2"
     showgrid="true" />
  <desc
     id="desc22">Coat of Arms of Canton of Freiburg (Fribourg)</desc>
  <g
     inkscape:groupmode="layer"
     id="layer1"
     inkscape:label="Fond écu"
     sodipodi:insensitive="true">
    <path
       id="path1899"
       d="M 1.5,1.49998 L 1.5,460.3679 C 1.5,626.6785 135.81456,761.5 301.49999,761.5 C 467.18543,761.5 601.5,626.6785 601.5,460.3679 L 601.5,1.49998 L 1.5,1.49998 z "
       style="fill:#2b5df2;fill-opacity:1" />
  </g>
  <g
     inkscape:groupmode="layer"
     id="layer2"
     inkscape:label="Meubles"
     sodipodi:insensitive="true">
    <g
       id="g6384"
       transform="matrix(4.199489,0,0,4.199489,-2739.836,-2562.177)">
      <path
         sodipodi:nodetypes="cccccscccccc"
         id="path1921"
         d="M 761.01173,633.60704 L 711.41642,703.40469 L 695.60704,731.58358 L 711.41642,703.40469 C 703.04296,702.04341 700.00417,704.54474 696.5068,709.0263 C 663.59049,753.21378 660.3895,751.92977 677.28347,763.86622 C 695.12788,776.4742 694.11016,771.70199 721.91704,722.71523 C 724.34714,718.08512 722.47091,712.94618 721.01173,710.16717 L 700.60704,734.82111 L 721.01173,710.16717 L 771.01173,640.57186 L 761.01173,633.60704 z "
         style="fill:#fcef3c;fill-opacity:1;fill-rule:evenodd;stroke:black;stroke-width:1px;stroke-linecap:butt;stroke-linejoin:miter;stroke-opacity:1" />
      <path
         sodipodi:nodetypes="cssss"
         id="path3697"
         d="M 751.41642,628.80938 C 745.69026,624.75751 751.17283,614.10685 758.98827,619.61876 L 784.19062,637.39296 C 790.1859,641.62119 783.11188,651.23732 776.82111,646.78593 L 751.41642,628.80938 z "
         style="fill:#fcef3c;fill-opacity:1;fill-rule:evenodd;stroke:black;stroke-width:1px;stroke-linecap:butt;stroke-linejoin:miter;stroke-opacity:1" />
      <path
         style="fill:#fcef3c;fill-opacity:1;fill-rule:evenodd;stroke:black;stroke-width:1px;stroke-linecap:butt;stroke-linejoin:miter;stroke-opacity:1"
         d="M 686.70527,633.60704 C 686.70527,633.60704 725.01684,689.84965 735.69354,704.41642 C 746.10648,718.62331 761.34055,746.99181 785.82907,746.04515 C 777.70237,755.97491 766.72704,757.01783 756.01316,743.31961 C 766.76643,756.88015 758.51761,769.98999 750.81393,774.63645 C 752.57979,755.48405 745.90343,741.49872 735.98118,725.90288 C 737.90987,718.80198 738.41668,718.53665 746.18848,719.35152 C 738.38362,718.54021 737.91489,718.7903 735.98118,725.90288 C 733.09447,721.4357 728.40064,715.24759 725.08651,709.96482 C 709.04483,684.3942 676.70527,640.57186 676.70527,640.57186 L 686.70527,633.60704 z "
         id="path4590"
         sodipodi:nodetypes="czcccccczcc" />
      <path
         style="fill:#fcef3c;fill-opacity:1;fill-rule:evenodd;stroke:black;stroke-width:1px;stroke-linecap:butt;stroke-linejoin:miter;stroke-opacity:1"
         d="M 696.30058,628.80938 C 702.02674,624.75751 696.54417,614.10685 688.72873,619.61876 L 663.52638,637.39296 C 657.5311,641.62119 664.60512,651.23732 670.89589,646.78593 L 696.30058,628.80938 z "
         id="path4592"
         sodipodi:nodetypes="cssss" />
      <path
         d="M 751.51065 734.5199 A 2.4787307 2.681076 0 1 1  746.55319,734.5199 A 2.4787307 2.681076 0 1 1  751.51065 734.5199 z"
         sodipodi:ry="2.681076"
         sodipodi:rx="2.4787307"
         sodipodi:cy="734.5199"
         sodipodi:cx="749.03192"
         id="path4594"
         style="fill:#fcef3c;fill-opacity:1;fill-rule:evenodd;stroke:black;stroke-width:1;stroke-miterlimit:4;stroke-dasharray:none;stroke-opacity:1"
         sodipodi:type="arc" />
      <path
         transform="translate(-6,-8)"
         sodipodi:type="arc"
         style="fill:#fcef3c;fill-opacity:1;fill-rule:evenodd;stroke:black;stroke-width:1;stroke-miterlimit:4;stroke-dasharray:none;stroke-opacity:1"
         id="path4596"
         sodipodi:cx="749.03192"
         sodipodi:cy="734.5199"
         sodipodi:rx="2.4787307"
         sodipodi:ry="2.681076"
         d="M 751.51065 734.5199 A 2.4787307 2.681076 0 1 1  746.55319,734.5199 A 2.4787307 2.681076 0 1 1  751.51065 734.5199 z" />
    </g>
  </g>
  <g
     inkscape:groupmode="layer"
     id="layer3"
     inkscape:label="Reflet final"
     style="display:inline"
     sodipodi:insensitive="true">
    <path
       style="fill:url(#radialGradient3236);fill-opacity:1"
       d="M 1.5,1.5 L 1.5,460.3679 C 1.5,626.67854 135.81454,761.5 301.49993,761.5 C 467.1854,761.5 601.5,626.67854 601.5,460.3679 L 601.5,1.5 L 1.5,1.5 z "
       id="path2346" />
  </g>
  <g
     inkscape:groupmode="layer"
     id="layer4"
     inkscape:label="Contour final"
     style="display:inline"
     sodipodi:insensitive="true">
    <path
       style="fill:none;fill-opacity:1;stroke:#000000;stroke-width:3;stroke-miterlimit:4;stroke-dasharray:none;stroke-opacity:1"
       d="M 1.5,1.5 L 1.5,460.36794 C 1.5,626.67854 135.81454,761.5 301.49993,761.5 C 467.1854,761.5 601.5,626.67854 601.5,460.36794 L 601.5,1.5 L 1.5,1.5 z "
       id="path3239" />
  </g>
</svg>

<?xml version="1.0" encoding="UTF-8"?>
<svg version="1.0" viewBox="0 0 603 763" xmlns="http://www.w3.org/2000/svg" xmlns:cc="http://web.resource.org/cc/" xmlns:dc="http://purl.org/dc/elements/1.1/" xmlns:rdf="http://www.w3.org/1999/02/22-rdf-syntax-ns#" xmlns:xlink="http://www.w3.org/1999/xlink">
<metadata>
<rdf:RDF>
<cc:Work rdf:about="">
<dc:format>image/svg+xml</dc:format>
<dc:type rdf:resource="http://purl.org/dc/dcmitype/StillImage"/>
<dc:date>07-AUG-2006</dc:date>
<dc:creator>
<cc:Agent>
<dc:title>Jérôme BLUM (wagner51)</dc:title>
</cc:Agent>
</dc:creator>
<cc:license rdf:resource="http://creativecommons.org/licenses/GPL/2.0/"/>
<dc:coverage/>
<dc:description>Gabarit pour le Projet:Blasons de WIkipédia</dc:description>
<dc:subject>
<rdf:Bag>
<rdf:li>blason suisse modèle gabarit projet blasons</rdf:li>
</rdf:Bag>
</dc:subject>
<dc:language>fr</dc:language>
<dc:title>Gabrit d'un blason suisse</dc:title>
</cc:Work>
<cc:License rdf:about="http://creativecommons.org/licenses/GPL/2.0/">
<cc:permits rdf:resource="http://web.resource.org/cc/Reproduction"/>
<cc:permits rdf:resource="http://web.resource.org/cc/Distribution"/>
<cc:requires rdf:resource="http://web.resource.org/cc/Notice"/>
<cc:permits rdf:resource="http://web.resource.org/cc/DerivativeWorks"/>
<cc:requires rdf:resource="http://web.resource.org/cc/ShareAlike"/>
<cc:requires rdf:resource="http://web.resource.org/cc/SourceCode"/>
</cc:License>
</rdf:RDF>
</metadata>
<defs>
<radialGradient id="a" cx="858.04" cy="579.93" r="300" gradientTransform="matrix(1.215 1.5316e-24 1.4647e-23 1.2667 -839.19 -490.49)" gradientUnits="userSpaceOnUse">
<stop stop-color="#fff" stop-opacity=".31373" offset="0"/>
<stop stop-color="#fff" stop-opacity=".25098" offset=".19"/>
<stop stop-color="#6b6b6b" stop-opacity=".12549" offset=".6"/>
<stop stop-opacity=".12549" offset="1"/>
</radialGradient>
</defs>
<desc>Coat of Arms of Canton of Freiburg (Fribourg)</desc>
<path d="m1.5 1.5v458.87c0 166.31 134.31 301.13 300 301.13 165.69 0 300-134.82 300-301.13v-458.87h-600z" fill="#2b5df2"/>
<g transform="matrix(4.1995 0 0 4.1995 -2739.8 -2562.2)" fill="#fcef3c" fill-rule="evenodd" stroke="#000">
<path d="m761.01 633.61-49.595 69.798-15.809 28.179 15.809-28.179c-8.3735-1.3613-11.412 1.14-14.91 5.6216-32.916 44.187-36.117 42.903-19.223 54.84 17.844 12.608 16.827 7.8358 44.634-41.151 2.4301-4.6301 0.55387-9.769-0.90531-12.548l-20.405 24.654 20.405-24.654 50-69.595-10-6.9648z" stroke-width="1px"/>
<path d="m751.42 628.81c-5.7262-4.0519-0.24359-14.703 7.5718-9.1906l25.202 17.774c5.9953 4.2282-1.0787 13.844-7.3695 9.393l-25.405-17.977z" stroke-width="1px"/>
<path d="m686.71 633.61s38.312 56.243 48.988 70.809c10.413 14.207 25.647 42.575 50.136 41.629-8.1267 9.9298-19.102 10.973-29.816-2.7255 10.753 13.561 2.5044 26.67-5.1992 31.317 1.7659-19.152-4.9105-33.138-14.833-48.734 1.9287-7.1009 2.4355-7.3662 10.207-6.5514-7.8049-0.81131-8.2736-0.56122-10.207 6.5514-2.8867-4.4672-7.5805-10.655-10.895-15.938-16.042-25.571-48.381-69.393-48.381-69.393l10-6.9648z" stroke-width="1px"/>
<path d="m696.3 628.81c5.7262-4.0519 0.24359-14.703-7.5718-9.1906l-25.202 17.774c-5.9953 4.2282 1.0787 13.844 7.3695 9.393l25.405-17.977z" stroke-width="1px"/>
<path d="m751.51 734.52a2.4787 2.6811 0 1 1-4.9575 0 2.4787 2.6811 0 1 1 4.9575 0z"/>
<path transform="translate(-6,-8)" d="m751.51 734.52a2.4787 2.6811 0 1 1-4.9575 0 2.4787 2.6811 0 1 1 4.9575 0z"/>
</g>
<g>
<path d="m1.5 1.5v458.87c0 166.31 134.31 301.13 300 301.13 165.69 0 300-134.82 300-301.13v-458.87h-600z" fill="url(#a)"/>
<path d="m1.5 1.5v458.87c0 166.31 134.31 301.13 300 301.13 165.69 0 300-134.82 300-301.13v-458.87h-600z" fill="none" stroke="#000" stroke-width="3"/>
</g>
</svg>
